X: 30729
T: Orlagh's
R: waltz
M: 3/4
K: Amajor
F2 cB ce|f2 ec Bd|c2 cA B/c/d|c3B GA|
Fc cB ce|fa ec Bd|c2 cB GA|1 F4 (3GFE:|2 F3a ga||
fc cB ce|fa ba ge|~f3 g af|g4 zc|
df fe fg|ac cB BA|G3 c BA|F4FB|
c2 fe fg|ac cB ce|~f3 g af|g4gB|
cf fe fg|ac cB BA|G3 c BA|B4 (3cBA||

